!!!COM: Music21
!!!OTL: waltz_Gangs-Of-New-York
!!!OMV: waltz_Gangs-Of-New-York
**kern
*clefG2
*k[f#c#]
*D:
*M3/4
=1
4r
=||
4dd
[4dd
4ryy
=
4dd]
8cc#L
8bJ
[4a
=
4a]
8bL
8cc#J
[4dd
=
8ddL]
8eeJ
4dd
4cc#
=
2b
4ee
=
2a
4dd
=
2cc#
4b
=
2a
8bL
8aJ
=
8gL
8f#J
4e
8f#L
8gJ
!!linebreak:original
=
8aL
8gJ
4f#
8gL
8aJ
=
8bL
8aJ
8bL
8ddJ
8cc#L
8eeJ
=
2dd
4ee
=
8bL
8cc#J
[2dd
=
8ddL]
8eeJ
4dd
4cc#
=
2b
4ee
=
2a
4dd
=
2cc#
4b
=
2a
8bL
8aJ
=
8gL
8f#J
4e
8f#L
8gJ
!!linebreak:original
=
8aL
8gJ
4f#
8gL
8aJ
=
8bL
8aJ
8bL
8ddJ
8cc#L
8eeJ
=
8ddL
8cc#J
8ddL
8ff#J
8eeL
8ggJ
=
8ff#L
8eeJ
4dd
4ccn
=
4b
4dd
[4gg
=
4gg]
8ff#L
8eeJ
8ff#L
8ddJ
=
2ee
4ee
=
4ff#
8eeL
8ddJ
8eeL
8aJ
!!linebreak:original
=
4b
4cc#
8ddL
8eeJ
=
4ff#
8ggL
8ff#J
8eeL
8ddJ
=
4cc#
4a
4dd
=
2dd
4r
=
2r
4dd
=
2cc#
4b
=
2a
8bL
8aJ
=
4g
4f#
4e
=
2d
4r
=
2r
4gg
=
2ff#
4ee
!!linebreak:original
=
2dd
8eeL
8ddJ
=
4ccn
4b
4a
=
4g
4b
4ee
=
8eeL
8ddJ
8cc#L
8ddJ
8eeL
8ff#J
=
4gg
8aaL
8ggJ
8ff#L
8eeJ
=
4dd
2ryy
=||
4dd
[4dd
4ryy
=
4dd]
8cc#L
8bJ
[4a
=
4a]
8bL
8cc#J
[4dd
!!linebreak:original
=
8ddL]
8eeJ
4dd
4cc#
=
2b
4ee
=
2a
4dd
=
2cc#
4b
=
2a
8bL
8aJ
=
8gL
8f#J
4e
8f#L
8gJ
=
8aL
8gJ
4f#
8gL
8aJ
=
8bL
8aJ
8bL
8ddJ
8cc#L
8eeJ
=
2dd
4ee
=
8bL
8cc#J
[2dd
!!linebreak:original
=
8ddL]
8eeJ
4dd
4cc#
=
2b
4ee
=
2a
4dd
=
2cc#
4b
=
2a
8bL
8aJ
=
8gL
8f#J
4e
8f#L
8gJ
=
8aL
8gJ
4f#
8gL
8aJ
=
8bL
8aJ
8bL
8ddJ
8cc#L
8eeJ
=
8ddL
8cc#J
8ddL
8ff#J
8eeL
8ggJ
!!linebreak:original
=
8ff#L
8eeJ
4dd
4ccn
=
4b
4dd
[4gg
=
4gg]
8ff#L
8eeJ
8ff#L
8ddJ
=
2ee
4ee
=
4ff#
8eeL
8ddJ
8eeL
8aJ
=
4b
4cc#
8ddL
8eeJ
=
4ff#
8ggL
8ff#J
8eeL
8ddJ
=
4cc#
4a
4dd
=
2dd
4r
!!linebreak:original
=
2r
4dd
=
2cc#
4b
=
2a
8bL
8aJ
=
4g
4f#
4e
=
2d
4r
=
2r
4gg
=
2ff#
4ee
=
2dd
8eeL
8ddJ
=
4ccn
4b
4a
=
4g
4b
4ee
=
8eeL
8ddJ
8cc#L
8ddJ
8eeL
8ff#J
!!linebreak:original
=
4gg
8aaL
8ggJ
8ff#L
8eeJ
=
4dd
2ryy
=||
*-
